docs/img/icon1/condition-list_check.svg

<svg width="16" height="18" viewBox="0 0 16 18" fill="none" xmlns="http://www.w3.org/2000/svg">
<g id="checked-svgrepo-com_svgrepo.com" clip-path="url(#clip0_1337_1385)">
<path id="Vector" d="M15.3114 2.53187L15.1657 2.37713L15.0201 2.53187L5.75075 12.3805L0.979905 7.31153L0.834265 7.15679L0.688627 7.31153L-0.14564 8.19794L-0.274651 8.33501L-0.145639 8.47209L5.60511 14.5822L5.75075 14.7369L5.89639 14.5822L16.1456 3.69243L16.2747 3.55535L16.1456 3.41828L15.3114 2.53187Z" fill="#0A7272" stroke="#0A7272" stroke-width="0.4"/>
</g>
<defs>
<clipPath id="clip0_1337_1385">
<rect width="16" height="17" fill="white" transform="translate(0 0.0566406)"/>
</clipPath>
</defs>
</svg>

<svg width="16" height="18" fill="none" xmlns="http://www.w3.org/2000/svg"><g clip-path="url(#clip0_1337_1385)"><path d="M15.311 2.532l-.145-.155-.146.155-9.27 9.848L.98 7.313l-.146-.155-.145.155-.835.886-.129.137.13.137 5.75 6.11.146.155.145-.155 10.25-10.89.129-.137-.13-.137-.834-.886z" fill="#0A7272" stroke="#0A7272" stroke-width=".4"/></g><defs><clipPath id="clip0_1337_1385"><path fill="#fff" transform="translate(0 .057)" d="M0 0h16v17H0z"/></clipPath></defs></svg>
